X:6089
T:Skylark, The
O:england
M:C|
R:Reel
S:Bruce's 250
K:D
agfg efdB|A~F3 DFAd|B~G3 EFG2|FAAG FAA2|\
agfg efdB|A~F3 DFAd|B~G3 G2ag|fgeg fdd2::\
a2fd Adfd|efed cAA2|a2fa bged|B~e3 efge|\
~f3a ~g3a|fgef dBAF|DFAF G2ag|fgeg fdd2:|


